**harm	**harte	**timestamp	**phrase	**leadinstrument	**kern
*M4/4	*M4/4	*	*	*	*
*A-:	*A-:	*	*	*	*A-:
1r;	N	0	.	r	1r;
=1	=1	=1	=1	=1	=1
*>A_intro	*>A_intro	*>A_intro	*>A_intro	*>A_intro	*>A_intro
1I	A-:maj	0.875	newline	r	1A- 1cc 1ee-
=2	=2	=2	=2	=2	=2
1IV	D-:maj	3.355	.	r	1D- 1f 1a-
=3	=3	=3	=3	=3	=3
4vi7	F:min7	5.835	newline	r	4F 4a- 4cc 4ee-
4Ib	A-:maj/3	6.443	.	r	4a- 4C 4ee-
4IV	D-:maj	7.051	.	r	4D- 4f 4a-
4I	A-:maj	7.658	.	r	4A- 4cc 4ee-
=4	=4	=4	=4	=4	=4
4ii7	B-:min7	8.266	.	r	4B- 4dd- 4ff 4aa-
4V7	E-:7	8.873	.	r	4E- 4g 4b- 4dd-
2I	A-:maj	9.481	.	r	2A- 2cc 2ee-
=5	=5	=5	=5	=5	=5
1I	A-:maj	10.696	newline	r	1A- 1cc 1ee-
=6	=6	=6	=6	=6	=6
1IV	D-:maj	13.155	.	r	1D- 1f 1a-
=7	=7	=7	=7	=7	=7
4vi7	F:min7	15.613	newline	r	4F 4a- 4cc 4ee-
4Ib	A-:maj/3	16.226	.	r	4a- 4C 4ee-
4IV	D-:maj	16.838	.	r	4D- 4f 4a-
4I	A-:maj	17.451	.	r	4A- 4cc 4ee-
=8	=8	=8	=8	=8	=8
4ii7	B-:min7	18.063	.	r	4B- 4dd- 4ff 4aa-
4V7	E-:7	18.675	.	r	4E- 4g 4b- 4dd-
2I	A-:maj	19.288	.	r	2A- 2cc 2ee-
=9	=9	=9	=9	=9	=9
*>B_instrumental	*>B_instrumental	*>B_instrumental	*>B_instrumental	*>B_instrumental	*>B_instrumental
4I	A-:maj	20.513	newline	r	4A- 4cc 4ee-
4Vb	E-:maj/3	21.132	.	r	4e- 4G 4b-
4vi7	F:min7	21.751	.	r	4F 4a- 4cc 4ee-
4V	E-:maj6	22.371	.	r	4E- 4g 4b-
=10	=10	=10	=10	=10	=10
4IV	D-:maj	22.99	.	r	4D- 4f 4a-
4IVd	D-:maj/7	23.609	.	r	4d- 4f 4a-
4ii7	B-:min7	24.228	.	r	4B- 4dd- 4ff 4aa-
4V7	E-:7	24.848	.	r	4E- 4g 4b- 4dd-
=11	=11	=11	=11	=11	=11
4vi7	F:min7	25.467	newline	r	4F 4a- 4cc 4ee-
4Ib	A-:maj/3	26.071	.	r	4a- 4C 4ee-
4IV	D-:maj	26.676	.	r	4D- 4f 4a-
4I	A-:maj	27.281	.	r	4A- 4cc 4ee-
=12	=12	=12	=12	=12	=12
4ii7	B-:min7	27.885	.	r	4B- 4dd- 4ff 4aa-
4V7	E-:7	28.49	.	r	4E- 4g 4b- 4dd-
2I	A-:maj	29.094	.	r	2A- 2cc 2ee-
=13	=13	=13	=13	=13	=13
*>A_verse	*>A_verse	*>A_verse	*>A_verse	*>A_verse	*>A_verse
1I	A-:maj	30.303	newline	voice	1A- 1cc 1ee-
=14	=14	=14	=14	=14	=14
1IV	D-:maj	32.744	.	voice	1D- 1f 1a-
=15	=15	=15	=15	=15	=15
4vi7	F:min7	35.185	newline	voice	4F 4a- 4cc 4ee-
4Ib	A-:maj/3	35.791	.	voice	4a- 4C 4ee-
4IV	D-:maj	36.397	.	voice	4D- 4f 4a-
4I	A-:maj	37.002	.	voice	4A- 4cc 4ee-
=16	=16	=16	=16	=16	=16
4ii7	B-:min7	37.608	.	voice	4B- 4dd- 4ff 4aa-
4V7	E-:7	38.214	.	voice	4E- 4g 4b- 4dd-
2I	A-:maj	38.82	.	voice	2A- 2cc 2ee-
=17	=17	=17	=17	=17	=17
1I	A-:maj	40.031	newline	voice	1A- 1cc 1ee-
=18	=18	=18	=18	=18	=18
1IV	D-:maj	42.503	.	voice	1D- 1f 1a-
=19	=19	=19	=19	=19	=19
4vi7	F:min7	44.976	newline	voice	4F 4a- 4cc 4ee-
4Ib	A-:maj/3	45.581	.	voice	4a- 4C 4ee-
4IV	D-:maj	46.186	.	voice	4D- 4f 4a-
4I	A-:maj	46.79	.	voice	4A- 4cc 4ee-
=20	=20	=20	=20	=20	=20
4ii7	B-:min7	47.395	.	voice	4B- 4dd- 4ff 4aa-
4V7	E-:7	48	.	voice	4E- 4g 4b- 4dd-
2I	A-:maj	48.605	.	voice	2A- 2cc 2ee-
=21	=21	=21	=21	=21	=21
*>B_chorus	*>B_chorus	*>B_chorus	*>B_chorus	*>B_chorus	*>B_chorus
4I	A-:maj	49.815	newline	voice	4A- 4cc 4ee-
4Vb	E-:maj/3	50.42	.	voice	4e- 4G 4b-
4vi7	F:min7	51.025	.	voice	4F 4a- 4cc 4ee-
4V	E-:maj6	51.63	.	voice	4E- 4g 4b-
=22	=22	=22	=22	=22	=22
4IV	D-:maj	52.235	.	voice	4D- 4f 4a-
4IVd	D-:maj/7	52.84	.	voice	4d- 4f 4a-
4ii7	B-:min7	53.445	.	voice	4B- 4dd- 4ff 4aa-
4V7	E-:7	54.05	.	voice	4E- 4g 4b- 4dd-
=23	=23	=23	=23	=23	=23
4vi7	F:min7	54.655	newline	voice	4F 4a- 4cc 4ee-
4Ib	A-:maj/3	55.266	.	voice	4a- 4C 4ee-
4IV	D-:maj	55.877	.	voice	4D- 4f 4a-
4I	A-:maj	56.488	.	voice	4A- 4cc 4ee-
=24	=24	=24	=24	=24	=24
4ii7	B-:min7	57.099	.	voice	4B- 4dd- 4ff 4aa-
4V7	E-:7	57.711	.	voice	4E- 4g 4b- 4dd-
2I	A-:maj	58.322	.	voice	2A- 2cc 2ee-
=25	=25	=25	=25	=25	=25
4I	A-:maj	59.544	newline	voice	4A- 4cc 4ee-
4Vb	E-:maj/3	60.154	.	voice	4e- 4G 4b-
4vi7	F:min7	60.764	.	voice	4F 4a- 4cc 4ee-
4V	E-:maj6	61.374	.	voice	4E- 4g 4b-
=26	=26	=26	=26	=26	=26
4IV	D-:maj	61.983	.	voice	4D- 4f 4a-
4IVd	D-:maj/7	62.593	.	voice	4d- 4f 4a-
4ii7	B-:min7	63.203	.	voice	4B- 4dd- 4ff 4aa-
4V7	E-:7	63.813	.	voice	4E- 4g 4b- 4dd-
=27	=27	=27	=27	=27	=27
4vi7	F:min7	64.423	newline	voice	4F 4a- 4cc 4ee-
4Ib	A-:maj/3	65.009	.	voice	4a- 4C 4ee-
4IV	D-:maj	65.596	.	voice	4D- 4f 4a-
4I	A-:maj	66.182	.	voice	4A- 4cc 4ee-
=28	=28	=28	=28	=28	=28
*M2/4	*M2/4	*M2/4	*M2/4	*M2/4	*M2/4
4ii7	B-:min7	66.769	.	voice	4B- 4dd- 4ff 4aa-
4V7	E-:7	67.355	.	voice	4E- 4g 4b- 4dd-
=29	=29	=29	=29	=29	=29
*>C_trans	*>C_trans	*>C_trans	*>C_trans	*>C_trans	*>C_trans
*M4/4	*M4/4	*M4/4	*M4/4	*M4/4	*M4/4
2I	A-:maj	67.942	->newline	voice	2A- 2cc 2ee-
2IVc	D-:maj/5	69.214	.	voice	2d- 2f 2A-
=30	=30	=30	=30	=30	=30
2I	A-:maj	70.486	.	voice	2A- 2cc 2ee-
2IVc	D-:maj/5	71.758	.	voice	2d- 2f 2A-
=31	=31	=31	=31	=31	=31
2I	A-:maj	73.03	newline	voice	2A- 2cc 2ee-
2IVc	D-:maj/5	74.226	.	voice	2d- 2f 2A-
=32	=32	=32	=32	=32	=32
2I	A-:maj	75.423	.	voice	2A- 2cc 2ee-
2IVc	D-:maj/5	76.619	.	voice	2d- 2f 2A-
=33	=33	=33	=33	=33	=33
*>A_verse	*>A_verse	*>A_verse	*>A_verse	*>A_verse	*>A_verse
1I	A-:maj	77.815	newline	voice	1A- 1cc 1ee-
=34	=34	=34	=34	=34	=34
1IV	D-:maj	80.291	.	voice	1D- 1f 1a-
=35	=35	=35	=35	=35	=35
4vi7	F:min7	82.767	newline	voice	4F 4a- 4cc 4ee-
4Ib	A-:maj/3	83.37	.	voice	4a- 4C 4ee-
4IV	D-:maj	83.972	.	voice	4D- 4f 4a-
4I	A-:maj	84.575	.	voice	4A- 4cc 4ee-
=36	=36	=36	=36	=36	=36
4ii7	B-:min7	85.178	.	voice	4B- 4dd- 4ff 4aa-
4V7	E-:7	85.781	.	voice	4E- 4g 4b- 4dd-
2I	A-:maj	86.384	.	voice	2A- 2cc 2ee-
=37	=37	=37	=37	=37	=37
1I	A-:maj	87.589	newline	voice	1A- 1cc 1ee-
=38	=38	=38	=38	=38	=38
1IV	D-:maj	90.023	.	voice	1D- 1f 1a-
=39	=39	=39	=39	=39	=39
4vi7	F:min7	92.456	newline	voice	4F 4a- 4cc 4ee-
4Ib	A-:maj/3	93.067	.	voice	4a- 4C 4ee-
4IV	D-:maj	93.677	.	voice	4D- 4f 4a-
4I	A-:maj	94.287	.	voice	4A- 4cc 4ee-
=40	=40	=40	=40	=40	=40
4ii7	B-:min7	94.897	.	voice	4B- 4dd- 4ff 4aa-
4V7	E-:7	95.507	.	voice	4E- 4g 4b- 4dd-
2I	A-:maj	96.118	.	voice	2A- 2cc 2ee-
=41	=41	=41	=41	=41	=41
*>B_chorus	*>B_chorus	*>B_chorus	*>B_chorus	*>B_chorus	*>B_chorus
4I	A-:maj	97.338	newline	voice	4A- 4cc 4ee-
4Vb	E-:maj/3	97.948	.	voice	4e- 4G 4b-
4vi7	F:min7	98.558	.	voice	4F 4a- 4cc 4ee-
4V	E-:maj6	99.168	.	voice	4E- 4g 4b-
=42	=42	=42	=42	=42	=42
4IV	D-:maj	99.778	.	voice	4D- 4f 4a-
4IVd	D-:maj/7	100.388	.	voice	4d- 4f 4a-
4ii7	B-:min7	100.997	.	voice	4B- 4dd- 4ff 4aa-
4V7	E-:7	101.607	.	voice	4E- 4g 4b- 4dd-
=43	=43	=43	=43	=43	=43
4vi7	F:min7	102.217	newline	voice	4F 4a- 4cc 4ee-
4Ib	A-:maj/3	102.831	.	voice	4a- 4C 4ee-
4IV	D-:maj	103.444	.	voice	4D- 4f 4a-
4I	A-:maj	104.058	.	voice	4A- 4cc 4ee-
=44	=44	=44	=44	=44	=44
4ii7	B-:min7	104.671	.	voice	4B- 4dd- 4ff 4aa-
4V7	E-:7	105.285	.	voice	4E- 4g 4b- 4dd-
2I	A-:maj	105.898	.	voice	2A- 2cc 2ee-
=45	=45	=45	=45	=45	=45
4I	A-:maj	107.125	newline	voice	4A- 4cc 4ee-
4Vb	E-:maj/3	107.741	.	voice	4e- 4G 4b-
4vi7	F:min7	108.357	.	voice	4F 4a- 4cc 4ee-
4V	E-:maj6	108.972	.	voice	4E- 4g 4b-
=46	=46	=46	=46	=46	=46
4IV	D-:maj	109.588	.	voice	4D- 4f 4a-
4IVd	D-:maj/7	110.204	.	voice	4d- 4f 4a-
4ii7	B-:min7	110.82	.	voice	4B- 4dd- 4ff 4aa-
4V7	E-:7	111.435	.	voice	4E- 4g 4b- 4dd-
=47	=47	=47	=47	=47	=47
4vi7	F:min7	112.051	newline	voice	4F 4a- 4cc 4ee-
4Ib	A-:maj/3	112.659	.	voice	4a- 4C 4ee-
4IV	D-:maj	113.267	.	voice	4D- 4f 4a-
4I	A-:maj	113.874	.	voice	4A- 4cc 4ee-
=48	=48	=48	=48	=48	=48
*>D_bridge	*>D_bridge	*>D_bridge	*>D_bridge	*>D_bridge	*>D_bridge
4vi7	F:min7	114.482	newline	guitar	4F 4a- 4cc 4ee-
4iii	C:min	115.094	.	guitar	4C 4e- 4g
4IV	D-:maj6	115.705	.	guitar	4D- 4f 4a-
4I	A-:maj	116.317	.	guitar	4A- 4cc 4ee-
=49	=49	=49	=49	=49	=49
4vi7	F:min7	116.928	.	guitar	4F 4a- 4cc 4ee-
4iii	C:min	117.54	.	guitar	4C 4e- 4g
4IV	D-:maj6	118.152	.	guitar	4D- 4f 4a-
4I	A-:maj	118.763	.	guitar	4A- 4cc 4ee-
=50	=50	=50	=50	=50	=50
4vi7	F:min7	119.375	newline	guitar	4F 4a- 4cc 4ee-
4iii	C:min	119.984	.	guitar	4C 4e- 4g
4IV	D-:maj6	120.594	.	guitar	4D- 4f 4a-
4I	A-:maj	121.204	.	guitar	4A- 4cc 4ee-
=51	=51	=51	=51	=51	=51
4vi7	F:min7	121.813	.	guitar	4F 4a- 4cc 4ee-
4iii	C:min	122.423	.	guitar	4C 4e- 4g
4IV	D-:maj6	123.032	.	guitar	4D- 4f 4a-
4I	A-:maj	123.642	.	guitar	4A- 4cc 4ee-
=52	=52	=52	=52	=52	=52
4vi7	F:min7	124.252	newline	guitar	4F 4a- 4cc 4ee-
4iii	C:min	124.862	.	guitar	4C 4e- 4g
4IV	D-:maj6	125.472	.	guitar	4D- 4f 4a-
4I	A-:maj	126.082	.	guitar	4A- 4cc 4ee-
=53	=53	=53	=53	=53	=53
4vi7	F:min7	126.693	.	guitar	4F 4a- 4cc 4ee-
4iii	C:min	127.303	.	guitar	4C 4e- 4g
4IV	D-:maj6	127.913	.	guitar	4D- 4f 4a-
4I	A-:maj	128.523	.	guitar	4A- 4cc 4ee-
=54	=54	=54	=54	=54	=54
4vi7	F:min7	129.134	newline	guitar	4F 4a- 4cc 4ee-
4iii	C:min	129.743	.	guitar	4C 4e- 4g
4IV	D-:maj6	130.353	.	guitar	4D- 4f 4a-
4I	A-:maj	130.962	.	guitar	4A- 4cc 4ee-
=55	=55	=55	=55	=55	=55
4vi7	F:min7	131.572	.	guitar	4F 4a- 4cc 4ee-
4iii	C:min	132.182	.	guitar	4C 4e- 4g
4IV	D-:maj6	132.791	.	guitar	4D- 4f 4a-
4I	A-:maj	133.401	.	guitar	4A- 4cc 4ee-
=56	=56	=56	=56	=56	=56
*>B_instrumental	*>B_instrumental	*>B_instrumental	*>B_instrumental	*>B_instrumental	*>B_instrumental
4I	A-:maj	134.01	newline	guitar	4A- 4cc 4ee-
4Vb	E-:maj/3	134.626	.	guitar	4e- 4G 4b-
4vi7	F:min7	135.243	.	guitar	4F 4a- 4cc 4ee-
4V	E-:maj6	135.859	.	guitar	4E- 4g 4b-
=57	=57	=57	=57	=57	=57
4IV	D-:maj	136.475	.	guitar	4D- 4f 4a-
4IVd	D-:maj/7	137.091	.	guitar	4d- 4f 4a-
4ii7	B-:min7	137.708	.	guitar	4B- 4dd- 4ff 4aa-
4V7	E-:7	138.324	.	guitar	4E- 4g 4b- 4dd-
=58	=58	=58	=58	=58	=58
4vi7	F:min7	138.94	newline	voice	4F 4a- 4cc 4ee-
4Ib	A-:maj/3	139.557	.	voice	4a- 4C 4ee-
4IV	D-:maj	140.173	.	voice	4D- 4f 4a-
4I	A-:maj	140.79	.	voice	4A- 4cc 4ee-
=59	=59	=59	=59	=59	=59
*M2/4	*M2/4	*M2/4	*M2/4	*M2/4	*M2/4
4ii7	B-:min7	141.407	.	voice	4B- 4dd- 4ff 4aa-
4V7	E-:7	142.023	.	voice	4E- 4g 4b- 4dd-
=60	=60	=60	=60	=60	=60
*>C_trans	*>C_trans	*>C_trans	*>C_trans	*>C_trans	*>C_trans
*M4/4	*M4/4	*M4/4	*M4/4	*M4/4	*M4/4
2I	A-:maj	142.64	->newline	voice	2A- 2cc 2ee-
2IVc	D-:maj/5	143.838	.	voice	2d- 2f 2A-
=61	=61	=61	=61	=61	=61
2I	A-:maj	145.035	.	voice	2A- 2cc 2ee-
2IVc	D-:maj/5	146.232	.	voice	2d- 2f 2A-
=62	=62	=62	=62	=62	=62
*>B_chorus	*>B_chorus	*>B_chorus	*>B_chorus	*>B_chorus	*>B_chorus
4I	A-:maj	147.43	newline	voice	4A- 4cc 4ee-
4Vb	E-:maj/3	148.048	.	voice	4e- 4G 4b-
4vi7	F:min7	148.666	.	voice	4F 4a- 4cc 4ee-
4V	E-:maj6	149.284	.	voice	4E- 4g 4b-
=63	=63	=63	=63	=63	=63
4IV	D-:maj	149.902	.	voice	4D- 4f 4a-
4IVd	D-:maj/7	150.52	.	voice	4d- 4f 4a-
4ii7	B-:min7	151.138	.	voice	4B- 4dd- 4ff 4aa-
4V7	E-:7	151.756	.	voice	4E- 4g 4b- 4dd-
=64	=64	=64	=64	=64	=64
4vi7	F:min7	152.374	newline	voice	4F 4a- 4cc 4ee-
4Ib	A-:maj/3	152.987	.	voice	4a- 4C 4ee-
4IV	D-:maj	153.601	.	voice	4D- 4f 4a-
4I	A-:maj	154.214	.	voice	4A- 4cc 4ee-
=65	=65	=65	=65	=65	=65
*M2/4	*M2/4	*M2/4	*M2/4	*M2/4	*M2/4
4ii7	B-:min7	154.828	.	voice	4B- 4dd- 4ff 4aa-
4V7	E-:7	155.441	.	voice	4E- 4g 4b- 4dd-
=66	=66	=66	=66	=66	=66
*>C_trans	*>C_trans	*>C_trans	*>C_trans	*>C_trans	*>C_trans
*M4/4	*M4/4	*M4/4	*M4/4	*M4/4	*M4/4
2I	A-:maj	156.055	->newline	voice	2A- 2cc 2ee-
2IVc	D-:maj/5	157.263	.	voice	2d- 2f 2A-
=67	=67	=67	=67	=67	=67
2I	A-:maj	158.47	.	voice	2A- 2cc 2ee-
2IVc	D-:maj/5	159.678	.	voice	2d- 2f 2A-
=68	=68	=68	=68	=68	=68
*>B_fadeout	*>B_fadeout	*>B_fadeout	*>B_fadeout	*>B_fadeout	*>B_fadeout
4I	A-:maj	160.886	newline	voice	4A- 4cc 4ee-
4Vb	E-:maj/3	161.516	.	voice	4e- 4G 4b-
4vi7	F:min7	162.146	.	voice	4F 4a- 4cc 4ee-
4V	E-:maj6	162.776	.	voice	4E- 4g 4b-
=69	=69	=69	=69	=69	=69
4IV	D-:maj	163.406	.	voice	4D- 4f 4a-
4IVd	D-:maj/7	164.036	.	voice	4d- 4f 4a-
4ii7	B-:min7	164.666	.	voice	4B- 4dd- 4ff 4aa-
4V7	E-:7	165.296	.	voice	4E- 4g 4b- 4dd-
=70	=70	=70	=70	=70	=70
4vi7	F:min7	165.926	newline	voice	4F 4a- 4cc 4ee-
4Ib	A-:maj/3	166.539	.	voice	4a- 4C 4ee-
4IV	D-:maj	167.152	.	voice	4D- 4f 4a-
4I	A-:maj	167.765	.	voice	4A- 4cc 4ee-
=71	=71	=71	=71	=71	=71
*M2/4	*M2/4	*M2/4	*M2/4	*M2/4	*M2/4
4ii7	B-:min7	168.378	.	voice	4B- 4dd- 4ff 4aa-
4V7	E-:7	168.991	.	voice	4E- 4g 4b- 4dd-
=72	=72	=72	=72	=72	=72
*>C_trans	*>C_trans	*>C_trans	*>C_trans	*>C_trans	*>C_trans
*M4/4	*M4/4	*M4/4	*M4/4	*M4/4	*M4/4
2I	A-:maj	169.604	->newline	voice	2A- 2cc 2ee-
2IVc	D-:maj/5	170.803	.	voice	2d- 2f 2A-
=73	=73	=73	=73	=73	=73
2I	A-:maj	172.001	.	voice	2A- 2cc 2ee-
2IVc	D-:maj/5	173.199	.	voice	2d- 2f 2A-
=74	=74	=74	=74	=74	=74
*>B_chorus	*>B_chorus	*>B_chorus	*>B_chorus	*>B_chorus	*>B_chorus
4I	A-:maj	174.397	newline	voice	4A- 4cc 4ee-
4Vb	E-:maj/3	174.723	.	voice	4e- 4G 4b-
4vi7	F:min7	175.05	.	voice	4F 4a- 4cc 4ee-
4V	E-:maj6	175.376	.	voice	4E- 4g 4b-
=75	=75	=75	=75	=75	=75
4IV	D-:maj	175.702	.	voice	4D- 4f 4a-
4IVd	D-:maj/7	176.028	.	voice	4d- 4f 4a-
4ii7	B-:min7	176.354	.	voice	4B- 4dd- 4ff 4aa-
4V7	E-:7	176.68	.	voice	4E- 4g 4b- 4dd-
1r;	N	177.006	.	r	1r;
1r;	N	179.722	.	r	1r;
*-	*-	*-	*-	*-	*-
!!!OTL: I Want You Back
!!!COC: The Jackson 5
!!!BillboardChartDate: 1969/11/29
!!!BillboardPeak: 1
!!!BillboardWeeksOnChart: 19
!!!SampleTargetRank: 49
!!!SampleActualRank: 51
!!!SampleID#: 1178
!!!RDF**harmony: **recip + pitch class of root + harmonic quality
!!!RDF**harte: Chris Harte's syntax, used by MIREX
!!!RDF**phrase: newline = linebreak in original McGill transcription
!!!RDF**timestamp: McGill audio timestamp in seconds
!!!RDF**leadinstrument: original McGill primary instrumentation annotation
!!!RDT: 2017/01/12/
!!!ENC: Nathaniel Condit-Schultz
!!!EST: Awating manual error checking and editing.
